Flat-Remix-Blue/mimetypes/scalable/text-x-fortran.svg

<svg xmlns="http://www.w3.org/2000/svg" xmlns:xlink="http://www.w3.org/1999/xlink" width="36pt" height="36pt" version="1.1" viewBox="0 0 36 36"> <defs> <clipPath id="clip1"> <path d="M 20 2 L 31 2 L 31 13 L 20 13 Z M 20 2"/> </clipPath> <clipPath id="clip2"> <path d="M 20.515625 2.625 L 30.328125 12.4375 L 22.023438 12.4375 C 21.292969 12.4375 20.515625 11.660156 20.515625 10.929688 Z M 20.515625 2.625"/> </clipPath> <image id="image6" width="36" height="36" xlink:href="data:image/png;base64,iVBORw0KGgoAAAANSUhEUgAAACQAAAAkCAYAAADhAJiYAAAABmJLR0QA/wD/AP+gvaeTAAAAmklEQVRYhe3T0QqCQBBG4aOtYEoUvf9Lildltl00C4tkbBeTIP+BAUEYP1YW1Pcqh53B9kbgaVPcwQF0tAmGSrMZ6AKcDQXw+AUVHEAtcAUaewYYgYmC3+cBCkAPnDJQMcoDVNnebgEqQnmAclTz4d0I3P4JStc9AjXvk4qLWQV53LLeEOl05gw4A3dgcPiuUkoppZRSSqk99gLWvSJpuDnlsAAAAABJRU5ErkJggg=="/> </defs> <g> <path style="fill:rgb(0%,0%,0%)" d="M 7.347656 3.152344 C 6.675781 3.152344 6.042969 3.785156 6.042969 4.457031 L 6.042969 31.847656 C 6.042969 32.480469 6.714844 33.152344 7.347656 33.152344 L 28.21875 33.152344 C 28.851562 33.152344 29.523438 32.480469 29.523438 31.847656 L 29.523438 11.632812 L 21.042969 3.152344 Z M 7.347656 3.152344"/> <g clip-path="url(#clip1)"> <g clip-path="url(#clip2)"> <use xlink:href="#image6"/> </g> </g> <path style="fill:rgb(20.000%,20.000%,20.000%)" d="M 21.042969 3.152344 L 29.523438 11.632812 L 22.347656 11.632812 C 21.714844 11.632812 21.042969 10.960938 21.042969 10.328125 Z M 21.042969 3.152344"/> <path style="fill:rgb(100.000%,100.000%,100.000%)" d="M 12.1875 14.140625 L 12.1875 15.480469 C 14.125 15.480469 14.125 16.0625 14.125 18 L 14.125 23.8125 C 14.125 25.75 14.125 26.332031 12.1875 26.332031 L 12.1875 27.6875 L 18 27.6875 L 18 26.332031 C 16.0625 26.332031 16.0625 25.75 16.0625 23.8125 L 16.0625 21.875 L 17.03125 21.875 C 17.804688 21.875 18.582031 21.875 18.582031 23.8125 L 19.9375 23.8125 L 19.9375 18 L 18.582031 18 C 18.582031 19.9375 17.804688 19.9375 17.03125 19.9375 L 16.0625 19.9375 L 16.0625 16.0625 L 19.9375 16.0625 C 21.875 16.0625 22.457031 16.0625 22.457031 18 L 23.8125 18 L 23.8125 14.125 Z M 12.1875 14.140625"/> </g> </svg>

<svg width="36pt" height="36pt" version="1.1" viewBox="0 0 36 36" xmlns="http://www.w3.org/2000/svg"><defs><filter id="a" x="-.192" y="-.192" width="1.384" height="1.384" color-interpolation-filters="sRGB"><feGaussianBlur stdDeviation="0.67843748"/></filter></defs><path d="m7.3477 3.1523c-0.67188 0-1.3047 0.63281-1.3047 1.3047v27.391c0 0.63281 0.67188 1.3047 1.3047 1.3047h20.871c0.63281 0 1.3047-0.67188 1.3047-1.3047v-20.215l-8.4805-8.4805z"/><path d="m20.668 3.5272 8.4805 8.4805h-7.1758c-0.63281 0-1.3047-0.67187-1.3047-1.3047z" filter="url(#a)" opacity=".2"/><path d="m21.043 3.1523 8.4805 8.4805h-7.1758c-0.63281 0-1.3047-0.67187-1.3047-1.3047z" fill="#333"/><path d="m12.188 14.141v1.3398c1.9375 0 1.9375 0.58203 1.9375 2.5195v5.8125c0 1.9375 0 2.5195-1.9375 2.5195v1.3555h5.8125v-1.3555c-1.9375 0-1.9375-0.58203-1.9375-2.5195v-1.9375h0.96875c0.77344 0 1.5508 0 1.5508 1.9375h1.3555v-5.8125h-1.3555c0 1.9375-0.77734 1.9375-1.5508 1.9375h-0.96875v-3.875h3.875c1.9375 0 2.5195 0 2.5195 1.9375h1.3555v-3.875z" fill="#fff"/></svg>
